svg/u1f6a2.svg

<svg viewBox="0 0 128 128" xmlns="http://www.w3.org/2000/svg">
  <g>
    <g>
      <path d="M83.1,44.23l0.54-22.63c0.02-0.8,0.47-1.49,1.14-1.71c1.38-0.45,4.04-1.05,8-0.78 c2.94,0.2,4.73,0.77,5.71,1.21c0.62,0.28,1.01,0.99,0.99,1.76l-0.54,22.66L83.1,44.23z" fill="#356477"/>
      <path d="M98.49,20.32c-0.98-0.44-2.77-1-5.71-1.21c-3.96-0.27-6.62,0.33-8,0.78 c-0.66,0.22-1.12,0.91-1.14,1.71l-0.14,5.85c0.09-0.04,0.17-0.1,0.26-0.13c1.51-0.45,4.42-1.04,8.77-0.75 c3.23,0.21,5.19,0.78,6.27,1.23c0.2,0.08,0.37,0.21,0.53,0.36l0.14-6.09C99.49,21.31,99.11,20.59,98.49,20.32z" fill="#F44336"/>
      <path d="M51.53,38.53l0.62-26.57c0.02-0.76,0.55-1.41,1.32-1.62c1.59-0.43,4.68-1,9.27-0.74 c3.41,0.19,5.48,0.73,6.63,1.15c0.72,0.26,1.17,0.94,1.15,1.67l-0.63,26.6L51.53,38.53z" fill="#356477"/>
      <path d="M69.37,10.75c-1.14-0.42-3.21-0.95-6.63-1.15c-4.6-0.26-7.68,0.31-9.27,0.74 c-0.77,0.21-1.3,0.86-1.32,1.62l-0.16,5.55c0.1-0.04,0.19-0.1,0.31-0.12c1.75-0.43,5.13-0.99,10.17-0.71 c3.75,0.2,6.02,0.74,7.27,1.16c0.23,0.08,0.43,0.2,0.61,0.34l0.17-5.77C70.54,11.69,70.09,11.01,69.37,10.75z" fill="#F44336"/>
      <path d="M86.01,26.82c1.35-0.22,3.11-0.37,5.26-0.3v-7.47c-2.26-0.04-4.01,0.21-5.26,0.5V26.82z" fill="#FF7555"/>
      <path d="M55.03,16.9c1.39-0.18,3.15-0.3,5.26-0.28V9.54c-2.2,0.01-3.96,0.21-5.26,0.45V16.9z" fill="#FF7555"/>
    </g>
    <g>
      <path d="M54.33,73.61l-0.42,8.4l-34.65-1.57l0.26-6.83c0,0,7.78-11.44,7.78-34.96l32.56-1.94 c0,0,1.55,3.32,0.39,13.19C58.31,66.63,54.33,73.61,54.33,73.61z" fill="#EEEEEE"/>
      <path d="M59.97,44.76l-32.9,0.8c-0.1,1.39-0.22,2.73-0.36,4.01L59.79,49L59.97,44.76z" fill="#82AEC0"/>
      <path d="M59.5,57.05l-33.99,0.1c-0.3,1.43-0.62,2.77-0.95,4.01h34.09L59.5,57.05z" fill="#82AEC0"/>
      <path d="M54.96,68.97L21.92,68.9c-0.82,1.92-1.53,3.25-1.96,3.99l32.72,0.07 C52.69,72.96,54.46,70.29,54.96,68.97z" fill="#82AEC0"/>
    </g>
    <g>
      <path d="M52.56,73.66l65.73,7.65l1.12-12.58l-11.14-1.4l2.02-22.19l-50.3-8.2 c0.38,24.56-5.65,33.81-7.43,36.03L52.56,73.66z" fill="#82AEC0"/>
      <path d="M109.68,51.75l-49.8-7.02c0,0-0.2,3.2-0.31,4.3l49.75,6.72L109.68,51.75z" fill="#365666"/>
      <path d="M108.26,67.33l0.36-3.95l-50.07-6.32c-0.27,1.4-0.54,2.87-0.85,4.08L108.26,67.33z" fill="#365666"/>
      <path d="M54.96,68.97c-0.91,1.74-1.95,3.32-2.42,4l-0.01,0.15l65.84,7.22l0.35-3.99L54.96,68.97z" fill="#365666"/>
      <path d="M105.82,55.27l0.46-4l-1.98-0.28L103.84,55l-4.3-0.58l0.47-4.04l-1.98-0.28l-0.47,4.05l-4.3-0.58 l0.47-4.07l-1.98-0.28l-0.47,4.08l-4.3-0.58l0.47-4.11l-1.98-0.28l-0.48,4.12l-4.3-0.58l0.48-4.14l-1.98-0.28l-0.48,4.16 l-4.3-0.58l0.48-4.18l-1.98-0.28l-0.48,4.19l-4.3-0.58l0.49-4.22l-1.98-0.28l-0.49,4.23l-6.65-0.9c0,0-0.08,0.88-0.1,1.42 c-0.02,0.54-0.1,1.58-0.1,1.58l49.75,6.68l0.27-2.96L105.82,55.27z" fill="#EEEEEE"/>
      <polygon points="110.08,47.36 59.84,39.72 59.86,36.7 110.36,44.34 " fill="#EEEEEE"/>
      <path d="M104.79,66.9l0.42-3.94l-1.98-0.25l-0.42,3.94l-4.3-0.53l0.42-3.95l-1.98-0.25l-0.42,3.95 l-4.3-0.53l0.42-3.96l-1.98-0.25l-0.42,3.96l-4.3-0.53l0.42-3.97l-1.98-0.25l-0.42,3.97l-4.3-0.53l0.42-3.97l-1.98-0.25 l-0.42,3.98l-4.3-0.53l0.42-3.98l-1.98-0.25l-0.42,3.98l-4.3-0.53l0.42-3.99L65.51,58l-0.43,3.99l-7.37-0.85 c0,0-0.2,0.7-0.81,2.85l62.24,7.74l0.28-3.02L104.79,66.9z" fill="#EEEEEE"/>
      <polygon points="114.05,79.8 114.47,75.86 112.49,75.63 112.06,79.58 107.43,79.04 107.85,75.09 105.87,74.86 105.44,78.81 100.81,78.28 101.24,74.33 99.25,74.1 98.82,78.05 94.19,77.52 94.62,73.56 92.63,73.33 92.2,77.29 87.57,76.76 88,72.79 86.01,72.56 85.58,76.53 80.95,76 81.38,72.03 79.39,71.8 78.96,75.77 74.33,75.23 74.76,71.26 72.77,71.03 72.34,75.01 67.71,74.47 68.14,70.49 66.15,70.26 65.72,74.24 61.09,73.71 61.52,69.73 59.53,69.49 59.1,73.48 52.52,72.96 51.87,82.75 117.59,89.47 118.38,80.31 " fill="#EEEEEE"/>
    </g>
    <g>
      <path d="M6.15,78.96c0,0-2.12-0.1-1.93,1.99c0,0-2.49,16.6,4.41,28C15.26,119.89,24.43,124,28.52,124 s80.46,0,80.46,0c5.02,0,10.23-3.78,12.03-9.39c1.41-4.41,2.66-20.35,2.92-25.21c0.04-0.78-0.55-1.45-1.33-1.51 C122.6,87.89,49.73,78.85,6.15,78.96z" fill="#356477"/>
      <path d="M123.48,95.94c0,0-76.02-5.19-119.62-4.83l-0.02-5.64c43.82-0.37,119.06,7.83,119.83,7.89 L123.48,95.94z" fill="#F44336"/>
      <path d="M19.38,78.33l-0.07,0.83c36.27,1.05,83.26,6.37,98.47,8.16l0.17-2 c-11.02-1.29-38.67-4.35-66.8-6.36C40.33,78.19,19.38,78.33,19.38,78.33z" fill="#82AEC0"/>
    </g>
  </g>
</svg>

<svg viewBox="0 0 128 128" xmlns="http://www.w3.org/2000/svg">
  <defs/>
  <path d="M83.1,44.23 L83.64,21.6 C83.66,20.8 84.11,20.11 84.78,19.89 C86.16,19.44 88.82,18.84 92.78,19.11 C95.72,19.31 97.51,19.88 98.49,20.32 C99.11,20.6 99.5,21.31 99.48,22.08 L98.94,44.74 L83.1,44.23 Z" fill="#356477"/>
  <path d="M98.49,20.32 C97.51,19.88 95.72,19.32 92.78,19.11 C88.82,18.84 86.16,19.44 84.78,19.89 C84.12,20.11 83.66,20.8 83.64,21.6 L83.5,27.45 C83.59,27.41 83.67,27.35 83.76,27.32 C85.27,26.87 88.18,26.28 92.53,26.57 C95.76,26.78 97.72,27.35 98.8,27.8 C99,27.88 99.17,28.01 99.33,28.16 L99.47,22.07 C99.49,21.31 99.11,20.59 98.49,20.32 Z" fill="#F44336"/>
  <path d="M51.53,38.53 L52.15,11.96 C52.17,11.2 52.7,10.55 53.47,10.34 C55.06,9.91 58.15,9.34 62.74,9.6 C66.15,9.79 68.22,10.33 69.37,10.75 C70.09,11.01 70.54,11.69 70.52,12.42 L69.89,39.02 L51.53,38.53 Z" fill="#356477"/>
  <path d="M69.37,10.75 C68.23,10.33 66.16,9.8 62.74,9.6 C58.14,9.34 55.06,9.91 53.47,10.34 C52.7,10.55 52.17,11.2 52.15,11.96 L51.99,17.51 C52.09,17.47 52.18,17.41 52.3,17.39 C54.05,16.96 57.43,16.4 62.47,16.68 C66.22,16.88 68.49,17.42 69.74,17.84 C69.97,17.92 70.17,18.04 70.35,18.18 L70.52,12.41 C70.54,11.69 70.09,11.01 69.37,10.75 Z" fill="#F44336"/>
  <path d="M86.01,26.82 C87.36,26.6 89.12,26.45 91.27,26.52 L91.27,19.05 C89.01,19.01 87.26,19.26 86.01,19.55 L86.01,26.82 Z" fill="#FF7555"/>
  <path d="M55.03,16.9 C56.42,16.72 58.18,16.6 60.29,16.62 L60.29,9.54 C58.09,9.55 56.33,9.75 55.03,9.99 L55.03,16.9 Z" fill="#FF7555"/>
  <path d="M54.33,73.61 L53.91,82.01 L19.26,80.44 L19.52,73.61 C19.52,73.61 27.3,62.17 27.3,38.65 L59.86,36.71 C59.86,36.71 61.41,40.03 60.25,49.9 C58.31,66.63 54.33,73.61 54.33,73.61 Z" fill="#EEEEEE"/>
  <path d="M59.97,44.76 L27.07,45.56 C26.97,46.95 26.85,48.29 26.71,49.57 L59.79,49 L59.97,44.76 Z" fill="#82AEC0"/>
  <path d="M59.5,57.05 L25.51,57.15 C25.21,58.58 24.89,59.92 24.56,61.16 L58.65,61.16 L59.5,57.05 Z" fill="#82AEC0"/>
  <path d="M54.96,68.97 L21.92,68.9 C21.1,70.82 20.39,72.15 19.96,72.89 L52.68,72.96 C52.69,72.96 54.46,70.29 54.96,68.97 Z" fill="#82AEC0"/>
  <path d="M52.56,73.66 L118.29,81.31 L119.41,68.73 L108.27,67.33 L110.29,45.14 L59.99,36.94 C60.37,61.5 54.34,70.75 52.56,72.97 L52.56,73.66 Z" fill="#82AEC0"/>
  <path d="M109.68,51.75 L59.88,44.73 C59.88,44.73 59.68,47.93 59.57,49.03 L109.32,55.75 L109.68,51.75 Z" fill="#365666"/>
  <path d="M108.26,67.33 L108.62,63.38 L58.55,57.06 C58.28,58.46 58.01,59.93 57.7,61.14 L108.26,67.33 Z" fill="#365666"/>
  <path d="M54.96,68.97 C54.05,70.71 53.01,72.29 52.54,72.97 L52.53,73.12 L118.37,80.34 L118.72,76.35 L54.96,68.97 Z" fill="#365666"/>
  <path d="M105.82,55.27 L106.28,51.27 L104.3,50.99 L103.84,55 L99.54,54.42 L100.01,50.38 L98.03,50.1 L97.56,54.15 L93.26,53.57 L93.73,49.5 L91.75,49.22 L91.28,53.3 L86.98,52.72 L87.45,48.61 L85.47,48.33 L84.99,52.45 L80.69,51.87 L81.17,47.73 L79.19,47.45 L78.71,51.61 L74.41,51.03 L74.89,46.85 L72.91,46.57 L72.43,50.76 L68.13,50.18 L68.62,45.96 L66.64,45.68 L66.15,49.91 L59.5,49.01 C59.5,49.01 59.42,49.89 59.4,50.43 C59.38,50.97 59.3,52.01 59.3,52.01 L109.05,58.69 L109.32,55.73 L105.82,55.27 Z" fill="#EEEEEE"/>
  <path d="M110.08,47.36 L59.84,39.72 L59.86,36.7 L110.36,44.34 Z" fill="#EEEEEE"/>
  <path d="M104.79,66.9 L105.21,62.96 L103.23,62.71 L102.81,66.65 L98.51,66.12 L98.93,62.17 L96.95,61.92 L96.53,65.87 L92.23,65.34 L92.65,61.38 L90.67,61.13 L90.25,65.09 L85.95,64.56 L86.37,60.59 L84.39,60.34 L83.97,64.31 L79.67,63.78 L80.09,59.81 L78.11,59.56 L77.69,63.54 L73.39,63.01 L73.81,59.03 L71.83,58.78 L71.41,62.76 L67.11,62.23 L67.53,58.24 L65.51,58 L65.08,61.99 L57.71,61.14 C57.71,61.14 57.51,61.84 56.9,63.99 L119.14,71.73 L119.42,68.71 L104.79,66.9 Z" fill="#EEEEEE"/>
  <path d="M114.05,79.8 L114.47,75.86 L112.49,75.63 L112.06,79.58 L107.43,79.04 L107.85,75.09 L105.87,74.86 L105.44,78.81 L100.81,78.28 L101.24,74.33 L99.25,74.1 L98.82,78.05 L94.19,77.52 L94.62,73.56 L92.63,73.33 L92.2,77.29 L87.57,76.76 L88,72.79 L86.01,72.56 L85.58,76.53 L80.95,76 L81.38,72.03 L79.39,71.8 L78.96,75.77 L74.33,75.23 L74.76,71.26 L72.77,71.03 L72.34,75.01 L67.71,74.47 L68.14,70.49 L66.15,70.26 L65.72,74.24 L61.09,73.71 L61.52,69.73 L59.53,69.49 L59.1,73.48 L52.52,72.96 L51.87,82.75 L117.59,89.47 L118.38,80.31 Z" fill="#EEEEEE"/>
  <path d="M6.15,78.96 C6.15,78.96 4.03,78.86 4.22,80.95 C4.22,80.95 1.73,97.55 8.63,108.95 C15.26,119.89 24.43,124 28.52,124 C32.61,124 108.98,124 108.98,124 C114,124 119.21,120.22 121.01,114.61 C122.42,110.2 123.67,94.26 123.93,89.4 C123.97,88.62 123.38,87.95 122.6,87.89 C122.6,87.89 49.73,78.85 6.15,78.96 Z" fill="#356477"/>
  <path d="M123.48,95.94 C123.48,95.94 47.46,90.75 3.86,91.11 L3.84,85.47 C47.66,85.1 122.9,93.3 123.67,93.36 L123.48,95.94 Z" fill="#F44336"/>
  <path d="M19.38,78.33 L19.31,79.16 C55.58,80.21 102.57,85.53 117.78,87.32 L117.95,85.32 C106.93,84.03 79.28,80.97 51.15,78.96 C40.33,78.19 19.38,78.33 19.38,78.33 Z" fill="#82AEC0"/>
</svg>
